icons/monitor-reception.svg

<svg width="24" height="24" viewBox="0 0 24 24" fill="none" xmlns="http://www.w3.org/2000/svg">
<path fill-rule="evenodd" clip-rule="evenodd" d="M5.15005 15.1C4.66426 15.1 4.30005 15.4642 4.30005 15.95V19.15C4.30005 19.6358 4.66426 20 5.15005 20H18.85C19.3358 20 19.7 19.6358 19.7 19.15V15.95C19.7 15.4642 19.3358 15.1 18.85 15.1H5.15005ZM2.80005 15.95C2.80005 14.6358 3.83584 13.6 5.15005 13.6H18.85C20.1643 13.6 21.2 14.6358 21.2 15.95V19.15C21.2 20.4642 20.1643 21.5 18.85 21.5H5.15005C3.83583 21.5 2.80005 20.4642 2.80005 19.15V15.95Z" fill="black"/>
<path fill-rule="evenodd" clip-rule="evenodd" d="M9.40754 10.5439C9.55635 9.50226 10.4493 8.59998 11.65 8.59998H12.35C13.5507 8.59998 14.4437 9.50226 14.5925 10.5439L14.5929 10.5468L15.1 14.1981V14.35H13.63L13.6071 14.3532L13.6067 14.35H13.6V14.3018L13.1075 10.756C13.1075 10.7556 13.1074 10.7553 13.1074 10.7549C13.0557 10.397 12.7489 10.1 12.35 10.1H11.65C11.2593 10.1 10.957 10.385 10.8961 10.7329L10.7966 12.2257L10.5 14.4009V14.45H10.4933L10.4931 14.4513L10.4833 14.45H9V14.2991L9.30338 12.0743L9.40354 10.5719L9.40754 10.5439Z" fill="black"/>
<path fill-rule="evenodd" clip-rule="evenodd" d="M5.1001 4.45C5.1001 3.29597 6.07685 2.5 7.0501 2.5H16.9501C18.1041 2.5 18.9001 3.47675 18.9001 4.45V10.85C18.9001 12.004 17.9233 12.8 16.9501 12.8H14.0501V11.3H16.9501C17.0463 11.3 17.1651 11.257 17.2601 11.1672C17.349 11.0833 17.4001 10.9753 17.4001 10.85V4.45C17.4001 4.35383 17.3571 4.23498 17.2673 4.13997C17.1834 4.05109 17.0754 4 16.9501 4H7.0501C6.95393 4 6.83508 4.04303 6.74007 4.13276C6.65118 4.2167 6.6001 4.32472 6.6001 4.45V10.95C6.6001 11.0462 6.64313 11.165 6.73286 11.26C6.8168 11.3489 6.92481 11.4 7.0501 11.4H9.9501V12.9H7.0501C5.89607 12.9 5.1001 11.9232 5.1001 10.95V4.45Z" fill="black"/>
</svg>

<svg xmlns="http://www.w3.org/2000/svg" fill="none" viewBox="0 0 24 24">
  <path fill="#000" fill-rule="evenodd" d="M5.15 15.1a.83.83 0 0 0-.85.85v3.2c0 .486.364.85.85.85h13.7a.83.83 0 0 0 .85-.85v-3.2a.83.83 0 0 0-.85-.85H5.15Zm-2.35.85a2.33 2.33 0 0 1 2.35-2.35h13.7a2.33 2.33 0 0 1 2.35 2.35v3.2a2.33 2.33 0 0 1-2.35 2.35H5.15a2.33 2.33 0 0 1-2.35-2.35v-3.2Z" clip-rule="evenodd"/>
  <path fill="#000" fill-rule="evenodd" d="M9.408 10.544A2.264 2.264 0 0 1 11.65 8.6h.7c1.2 0 2.094.902 2.242 1.944v.003l.508 3.651v.152h-1.47l-.023.003v-.003H13.6v-.048l-.492-3.546v-.001a.764.764 0 0 0-.758-.655h-.7a.764.764 0 0 0-.754.633l-.1 1.493L10.5 14.4v.049h-.007v.001l-.01-.001H9v-.15l.303-2.226.1-1.502.005-.028Z" clip-rule="evenodd"/>
  <path fill="#000" fill-rule="evenodd" d="M5.1 4.45c0-1.154.977-1.95 1.95-1.95h9.9c1.154 0 1.95.977 1.95 1.95v6.4c0 1.154-.977 1.95-1.95 1.95h-2.9v-1.5h2.9a.47.47 0 0 0 .31-.133.427.427 0 0 0 .14-.317v-6.4a.47.47 0 0 0-.133-.31.427.427 0 0 0-.317-.14h-9.9a.47.47 0 0 0-.31.133.427.427 0 0 0-.14.317v6.5a.47.47 0 0 0 .133.31c.084.089.192.14.317.14h2.9v1.5h-2.9c-1.154 0-1.95-.977-1.95-1.95v-6.5Z" clip-rule="evenodd"/>
</svg>
